X:1
T:Au printemps, la m?re Ajasse
Z:Transcrit et/ou corrig? par Michel BELLON - 2007-04-27
Z:Pour toute observation mailto:galouvielle@free.fr
M:3/4
L:1/4
K:C
V:1
c/c/cG | A/B/AG | c/c/cG | A/B/AG |
c/e/ d/d/ c/e/ | d/e//d// c G |[P:Intro] c/e/ d/d/ c/e/ | d/e//d// c2 |]
V:3
GEE | F/E//G//FE | GEE | F/E//G//FE |
cBA | Gc/B//A//B | cBA | G/c G/ A/B/ |]
V:2
G/G/GB | c/d/cB | G/G/GB | c/d/cB |
e/g/ f/f/ e/g/ | f/g/4f/4 ec | e/g/ f/f/ e/g/ | f/g/4f/4 e2 |]
<end>
<start>
